flaticon/productivity/browser-6.svg

<svg xmlns="http://www.w3.org/2000/svg" width="32" height="32" viewBox="0 0 24 24">
    <path d="M 0 0 L 0 24 L 24 24 L 24 0 Z M 22.980469 1.019531 L 22.980469 5.289062 L 1.019531 5.289062 L 1.019531 1.019531 Z M 1.019531 22.980469 L 1.019531 6.3125 L 22.980469 6.3125 L 22.980469 22.980469 Z M 1.019531 22.980469"/>
    <path d="M 16.355469 10.914062 L 17.421875 9.847656 L 16.699219 9.125 L 15.632812 10.195312 C 14.769531 9.472656 13.691406 9.003906 12.511719 8.898438 L 12.511719 7.390625 L 11.488281 7.390625 L 11.488281 8.898438 C 10.308594 9.003906 9.230469 9.472656 8.367188 10.191406 L 7.300781 9.125 L 6.578125 9.847656 L 7.644531 10.914062 C 6.925781 11.777344 6.457031 12.855469 6.347656 14.035156 L 4.84375 14.035156 L 4.84375 15.058594 L 6.347656 15.058594 C 6.457031 16.238281 6.925781 17.316406 7.644531 18.179688 L 6.578125 19.246094 L 7.300781 19.96875 L 8.367188 18.902344 C 9.230469 19.621094 10.308594 20.09375 11.488281 20.199219 L 11.488281 21.703125 L 12.511719 21.703125 L 12.511719 20.199219 C 13.691406 20.09375 14.769531 19.621094 15.632812 18.902344 L 16.699219 19.96875 L 17.421875 19.246094 L 16.355469 18.179688 C 17.074219 17.316406 17.542969 16.238281 17.652344 15.058594 L 19.15625 15.058594 L 19.15625 14.035156 L 17.652344 14.035156 C 17.542969 12.855469 17.074219 11.777344 16.355469 10.914062 Z M 12 19.199219 C 9.433594 19.199219 7.347656 17.113281 7.347656 14.546875 C 7.347656 11.984375 9.433594 9.894531 12 9.894531 C 14.566406 9.894531 16.652344 11.984375 16.652344 14.546875 C 16.652344 17.113281 14.566406 19.199219 12 19.199219 Z M 12 19.199219"/>
    <path d="M12 11.75C10.457031 11.75 9.203125 13.003906 9.203125 14.546875 9.203125 16.089844 10.457031 17.347656 12 17.347656 13.542969 17.347656 14.796875 16.089844 14.796875 14.546875 14.796875 13.003906 13.542969 11.75 12 11.75zM12 16.324219C11.019531 16.324219 10.222656 15.527344 10.222656 14.546875 10.222656 13.566406 11.019531 12.769531 12 12.769531 12.980469 12.769531 13.777344 13.566406 13.777344 14.546875 13.777344 15.527344 12.980469 16.324219 12 16.324219zM14.535156 2.996094L16.261719 2.996094 16.261719 4.015625 14.535156 4.015625zM17.15625 2.996094L18.882812 2.996094 18.882812 4.015625 17.15625 4.015625zM19.78125 2.996094L21.507812 2.996094 21.507812 4.015625 19.78125 4.015625zM19.78125 2.996094"/>
</svg>

<svg xmlns="http://www.w3.org/2000/svg" width="32" height="32" viewBox="0 0 24 24">
    <path d="M0 0v24h24V0zm22.98 1.02v4.27H1.02V1.02zM1.02 22.98V6.312h21.96V22.98zm0 0"/>
    <path d="M16.355 10.914l1.067-1.066-.723-.723-1.066 1.07a5.636 5.636 0 0 0-3.121-1.297V7.391h-1.024v1.507a5.66 5.66 0 0 0-3.12 1.293L7.3 9.125l-.723.723 1.067 1.066a5.693 5.693 0 0 0-1.297 3.121H4.844v1.024h1.504a5.693 5.693 0 0 0 1.297 3.12l-1.067 1.067.723.723 1.066-1.067a5.665 5.665 0 0 0 3.121 1.297v1.504h1.024V20.2a5.665 5.665 0 0 0 3.12-1.297L16.7 19.97l.723-.723-1.067-1.066a5.693 5.693 0 0 0 1.297-3.121h1.504v-1.024h-1.504a5.693 5.693 0 0 0-1.297-3.12zM12 19.2a4.656 4.656 0 0 1-4.652-4.652A4.659 4.659 0 0 1 12 9.895a4.659 4.659 0 0 1 4.652 4.652A4.656 4.656 0 0 1 12 19.199zm0 0"/>
    <path d="M12 11.75a2.8 2.8 0 0 0 0 5.598 2.8 2.8 0 0 0 0-5.598zm0 4.574c-.98 0-1.777-.797-1.777-1.777 0-.98.797-1.777 1.777-1.777.98 0 1.777.796 1.777 1.777 0 .98-.797 1.777-1.777 1.777zm0 0M14.535 2.996h1.727v1.02h-1.727zm0 0M17.156 2.996h1.727v1.02h-1.727zm0 0M19.781 2.996h1.727v1.02H19.78zm0 0"/>
</svg>
